X: 303
T: HURRAH! FOR OLD ERIN FOR EVER
T: Urra! Le sean Eirinn go brath
B: O'Neill's 303
M: 6/8
L: 1/8
Z: 1999 by John Chambers <jc@trillian.mit.edu>
N: "Cheerful"
N: "Collected by J.O'Neill"
K:G
(B/c/) \
| d>cB c>de | d2z zHd>c | B>GE DEF | G3 z(Bc) |
| d>cB c>de | A3- A2 (f/e/) | dcA EFD | G3 z2 ||
|| G \
| E>FG BHe^d | e3 z2(e/f/) | g>fe Be^d | e3 z2(e/f/) |
| g>fe d>cB | eHez zef | gdB {d}cAF | G3 z2 ||
|| (b/c/) \
| d>ed d>cB | d3 zge | d>ed d>cB | {B}A3 z2c |
| B>cd de=f | He3 z(e>f) | gdB {d}cAF | G3 z2 ||


